X:1
T:Title
%%score { ( 1 3 ) | ( 2 4 ) }
L:1/8
M:4/4
K:Ab
V:1 treble nm="Grand Piano"
V:3 treble 
V:2 bass 
V:4 bass 
V:1
 z4 z2[Q:1/4=100] [CA][DB] | [Ec]3 [Ec] [Fd]2 [Ec]2 | c2 B4 GA | B3 B c2 B2 |[M:3/4] A4 z2 | %5
[M:1/4] [CA][DB] |[M:4/4] [Ec]3 [Ec] [_Ge]2 [Fd]2 | [Fd]2 [Ec]4 [CA][CA] | B3 A c2 B2 | %9
[M:5/8] [CA]3 z2 |[M:3/8] AAG |[M:4/4] F6 z2 | [DF]2 [CE]4 [EA]B | c2 c2 d2 c2 |[M:3/4] B6 | %15
[M:1/4] cd |[M:4/4] e6 z2 | [FA]2 F4 AF | E2 A2 A2 G2 |[M:3/4] [CA]6 |] %20
V:2
 z4 z2 [A,,E,][A,,E,] | [A,,A,]3 [A,,A,] [A,,A,]2 [A,,A,]2 | [E,A,E]2 [E,G,D]4 [E,B,][E,C] | %3
 [E,D]3 [E,D] [E,E]2 [E,D]2 |[M:3/4] E,4 z2 |[M:1/4] [A,,E,][A,,E,] | %6
[M:4/4] [A,,A,]3 [A,,A,] [A,,A,]2 [A,,A,]2 | [A,,A,]2 [A,,A,]4 [A,,E,][A,,E,] | %8
 [E,D]3 [E,C] [E,E]2 [E,D]2 |[M:5/8] [A,,E,]3 z2 |[M:3/8] CCE |[M:4/4] D6 z2 | %12
 [A,,A,]2 [A,,A,]4 [C,A,][E,G,E] | [A,E]2 [A,E]2 [G,B,E]2 [A,E]2 |[M:3/4] [E,G,E]6 |[M:1/4] A,B, | %16
[M:4/4] z2 A,A, A,[K:treble][A,EA][A,DG][A,C_G] | [D,D]2 [D,A,D]4 [D,F,D][D,A,D] | %18
 [E,A,C]2 [E,CE]2 [E,B,D]2 [E,B,D]2 |[M:3/4] [A,,A,]6 |] %20
V:3
 x8 | x8 | x8 | x8 |[M:3/4] C4- [A,CE]2 |[M:1/4] x2 |[M:4/4] x8 | x8 | x8 |[M:5/8] x5 |[M:3/8] x3 | %11
[M:4/4] z A,A,A, A,[FA][EG][DF] | x8 | x8 |[M:3/4] x6 |[M:1/4] x2 |[M:4/4] z2 EE EcBA | x8 | x8 | %19
[M:3/4] x6 |] %20
V:4
 x8 | x8 | x8 | x8 |[M:3/4] A,,6 |[M:1/4] x2 |[M:4/4] x8 | x8 | x8 |[M:5/8] x5 |[M:3/8] x3 | %11
[M:4/4] z D,D,D, D,[D,D][D,D][D,A,] | x8 | x8 |[M:3/4] x6 |[M:1/4] x2 |[M:4/4] C6[K:treble] z2 | %17
 x8 | x8 |[M:3/4] x6 |] %20

